X: 12141
T: the Lass of Paties Mill
%R: air, march
B: James Oswald "The Caledonian Pocket Companion" v.1 b.1 p.14 (and 3 staves on p.15)
Z: 2020 John Chambers <jc:trillian.mit.edu>
M: 2/4
L: 1/16
K: D
%%slurgraces 1
%%graceslurs 1
"_Slow"(A3G) |\
TF4(E2D2) (F2G2)A4 | d8 A6d2 | (B2c2)(d2A2) (B2A2)(G2F2) | {F4}E12 (A3G) |\
F4E2D2 F2G2A4 | (d6ef) A6d2 | (B2c2)(d2B2) (c2d2)(e2c2) | d6e2 d4 :|
|: (f3g) |\
{f}e6d2 c4(B2A2) | (d6ef) A6d2 | (B2c2)(d2A2) (B2A2)(G2F2) | {F4}E12 f3g |\
(agf2) (gfe2) f2d2B2g2 | {f4}e8 A4(G2F2) | G2B2A2d2 c2e2A2c2 | d6e2 d4 :|
P: Variation
A4 |\
(G2F2)(E2D2) (F2G2)A4 | {de}f4Te3d A6A2 | (BG3)d4 (AF3)(dF3) | E12 A4 |\
(G2F2)(E2D2) (F2G2)A4 | {de}f4 e2d2 Tc4(B2A2) | B2b2a2g2 (f2e2)(d2c2) |
d6e2 d2 :: f4 |\
(g2f2)(e2d2) (c2e2)(A2c2) | d2B2A2G2 TF4E2D2 | G2B2d2A2 B2G2A2F2 | TE6F2 E4(f2g2) |\
(agfe) d2b2 g2e2c2a2 |
f2d2B2g2 Tc4(B2A2) | (G2F2)(E2D2) {de}f4Te3f | d6e2 d4 :: (A2G2) |\
F2D4 F4 A4(Bc) | (defe) (fdef) A6d2 |
(BABc BcdA) (BAdc BAGF) | {F}E6F2 E4(A2G2) |\
F2D4 F4 A4(Bc) | (defe) (fdef) A6d2 | BABc d2B2 c2e2A2c2 |
{c}d6e2 d4 :: (fefg) |\
{f}e6d2 (cdec) (ABcA) | (dfef) (dfef) A6d2 | B2d2- dcBA B2A2G2F2 | TE6(D/E/F) E4(f2g2) |
(agfa) (gfeg) (fdcd) (Bagf) | (efgf) (edcB) A4 (G2F2) | G2B2A2d2 B2{ef}g2 {f}e2(dc) | {c}d6e2 d4 :|
